X:1
T:101 difrencia entre acordes contrapuntisticos
T: y acordes armonicos
I:linebreak !
L:1/4
K:Cmaj
V:1 clef=treble
"a"e2 e2 d2 c2| "b"e2 d2 d2 c2 | g2 f e d2 c2 | "c"g2 f e d2 c2 |
V:2 clef=treble
c2 B2 B2 G2| c2 A2 B2 G2 | e2 d2 B2 G2| e2 c2 B2 G2 |
V:3 clef=treble
G2 G2 F2 E2| G2 F2 F2 E2| c2 A2 G F E2| G2 G2 F2 E2|
V:4 clef=bass
C,2 "III"E,2 G,2 C,2 | C,2 "II"D,2 G,2 C,2 | C,2 "II"D,2 G,2 C,2 | C,2 "IV"F,2 G,2 C,2 |
W:La progresión armónica fundamental puede ser enriquecida con el II,
W:el III o el IV. 
W:Cada uno de estos acordes mantiene una asociación armó­nica de grado 
W:diferente con el I y el V (aunque solamente sí están coloca­
W:dos entre estas dos armonías). Estos acordes, de este modo, elaboran la
W:progresión armónica fundamental, produciendo tres modelos: 
W:I-III-V-I, I-II-V-I y I-IV-V-I 